static/img/pictograms/picto-pack/picto-server-orange.svg

<svg xmlns="http://www.w3.org/2000/svg" width="400" height="400" viewBox="0 0 400 400"><g><path fill="#DD4814" d="M299.985 26.834C204.35-28.393 82.055 4.37 26.828 100.004c-55.223 95.657-22.46 217.964 73.197 273.174 95.64 55.216 217.94 22.44 273.154-73.194 55.215-95.662 22.442-217.945-73.195-273.15zm-24.99 263.17c0 16.57-13.413 29.996-29.993 29.996h-89.986c-16.587 0-30.01-13.427-30.01-29.996v-180.01c0-16.56 13.422-29.996 30.01-29.996h89.986c16.58 0 29.993 13.437 29.993 29.996v180.01zm-41.755-138.76h-66.466c-6.502 0-11.758-5.042-11.758-11.255 0-6.203 5.26-11.255 11.758-11.255h66.466c6.477 0 11.762 5.052 11.762 11.254 0 6.212-5.285 11.253-11.762 11.253zm0-29.997h-66.466c-6.502 0-11.758-5.03-11.758-11.254 0-6.212 5.26-11.254 11.758-11.254h66.466c6.477 0 11.762 5.04 11.762 11.253 0 6.223-5.285 11.254-11.762 11.254zm0 59.993h-66.466c-6.502 0-11.758-5.03-11.758-11.243s5.26-11.246 11.758-11.246h66.466c6.477 0 11.762 5.032 11.762 11.247 0 6.216-5.285 11.243-11.762 11.243zm-48.252 78.764c0 8.283-6.706 14.99-14.996 14.99-8.27 0-14.975-6.707-14.975-14.99 0-8.28 6.706-15.007 14.975-15.007 8.29 0 14.996 6.73 14.996 15.007z"/></g></svg>

<?xml version="1.0" encoding="utf-8"?>
<!-- Generator: Adobe Illustrator 17.0.2, SVG Export Plug-In . SVG Version: 6.00 Build 0)  -->
<!DOCTYPE svg PUBLIC "-//W3C//DTD SVG 1.1//EN" "http://www.w3.org/Graphics/SVG/1.1/DTD/svg11.dtd">
<svg version="1.1" xmlns="http://www.w3.org/2000/svg" xmlns:xlink="http://www.w3.org/1999/xlink" x="0px" y="0px" width="400px"
	 height="400px" viewBox="0 0 400 400" enable-background="new 0 0 400 400" xml:space="preserve">
<g id="BK" display="none">
	<rect x="-1600" y="-3080" display="inline" fill="#FFFFFF" width="5100" height="4060"/>
</g>
<g id="Comp">
	<g id="_x31_7">
		<path fill="#DD4814" d="M299.985,26.834C204.351-28.393,82.055,4.369,26.828,100.003
			c-55.223,95.658-22.461,217.965,73.197,273.175c95.641,55.216,217.941,22.44,273.154-73.194
			C428.395,204.322,395.622,82.039,299.985,26.834z M274.995,290.004c0,16.57-13.413,29.996-29.993,29.996h-89.986
			c-16.587,0-30.011-13.427-30.011-29.996v-180.01c0-16.559,13.423-29.996,30.011-29.996h89.986
			c16.58,0,29.993,13.437,29.993,29.996L274.995,290.004L274.995,290.004z M233.24,151.243h-66.466
			c-6.502,0-11.758-5.041-11.758-11.254c0-6.202,5.26-11.254,11.758-11.254h66.466c6.477,0,11.762,5.052,11.762,11.254
			C245.002,146.202,239.717,151.243,233.24,151.243L233.24,151.243z M233.24,121.247h-66.466c-6.502,0-11.758-5.031-11.758-11.254
			c0-6.212,5.26-11.254,11.758-11.254h66.466c6.477,0,11.762,5.041,11.762,11.254C245.002,116.216,239.717,121.247,233.24,121.247
			L233.24,121.247z M233.24,181.24h-66.466c-6.502,0-11.758-5.031-11.758-11.243s5.26-11.246,11.758-11.246h66.466
			c6.477,0,11.762,5.031,11.762,11.246C245.002,176.213,239.717,181.24,233.24,181.24L233.24,181.24z M184.988,260.004
			c0,8.283-6.706,14.989-14.996,14.989c-8.269,0-14.975-6.706-14.975-14.989c0-8.28,6.706-15.007,14.975-15.007
			C178.281,244.997,184.988,251.728,184.988,260.004z"/>
	</g>
</g>
</svg>
